gama.ui.shared/icons_svg/dark/navigator/files/file.model.svg

<svg height="16.751" viewBox="-746.872 -3501.737 16.75 16.751" width="16.75" xmlns="http://www.w3.org/2000/svg"><g fill="none"><path d="m-746.4969-3501.361h15.999997v15.999997h-15.999997z"/><path d="m-742.6573-3500.4814 4.96-.16 3.36-.16 3.2 3.2-.16 11.68h-11.36z" fill="#666566"/><path d="m-730.4977-3497.7386v10.3776c0 1.1046-.8955 2-2 2h-8.8c-1.1046 0-2-.8954-2-2v-12c0-1.1046.8954-2 2-2h7.1776c.1062-.0067.2167.0287.3052.117l3.2 3.2c.0885.0886.1239.199.1172.3054zm-4-2.8224h-6.8c-.6628 0-1.2.5373-1.2 1.2v12c0 .6627.5372 1.2 1.2 1.2h8.8c.6627 0 1.2-.5373 1.2-1.2v-10h-2.8c-.22095 0-.4-.179-.4-.4zm.8.5657v1.8343h1.8343z" fill="#fff"/><path d="m-734.4898-3491.266v-1.09h-2.6v.92h1.52v.4c0 .46-.09.82-.35 1.12-.28.33-.7.51-1.17.51-.43 0-.79-.16-1.06-.44-.35-.38-.42-.81-.42-2.22s.07-1.84.42-2.22c.27-.28.63-.44 1.06-.44.8 0 1.32.46 1.5 1.24h1.08c-.19-1.21-1.08-2.2-2.58-2.2-.78 0-1.38.26-1.84.72-.69.7-.72 1.41-.72 2.9s.03 2.2.72 2.9c.46.46 1.06.72 1.84.72.75 0 1.43-.25 1.96-.81.47-.51.64-1.08.64-2.01z" fill="#c0e0ff"/></g></svg>

<?xml version="1.0" encoding="UTF-8" standalone="no"?>
<!DOCTYPE svg PUBLIC "-//W3C//DTD SVG 1.1//EN" "http://www.w3.org/Graphics/SVG/1.1/DTD/svg11.dtd">
<svg xmlns="http://www.w3.org/2000/svg" version="1.1" xmlns:xl="http://www.w3.org/1999/xlink" xmlns:dc="http://purl.org/dc/elements/1.1/" viewBox="-746.8719 -3501.737 16.749997 16.7508" width="16.749997" height="16.7508">
  <defs/>
  <g id="SOURCES" stroke-opacity="1" stroke-dasharray="none" fill="none" fill-opacity="1" stroke="none">
    <title>SOURCES</title>
    <g id="SOURCES_Dark">
      <title>Dark</title>
      <g id="Graphic_10970">
        <rect x="-746.4969" y="-3501.361" width="15.999997" height="15.999997" stroke="gray" stroke-opacity="0" stroke-linecap="round" stroke-linejoin="round" stroke-width="0"/>
      </g>
      <g id="Graphic_10969">
        <path d="M -742.6573 -3500.4814 L -737.6973 -3500.6414 L -734.3373 -3500.8014 L -731.1373 -3497.6014 L -731.2973 -3485.9214 L -742.6573 -3485.9214 Z" fill="#666566"/>
      </g>
      <g id="Graphic_10968">
        <path d="M -730.4977 -3497.7386 L -730.4977 -3487.361 C -730.4977 -3486.2564 -731.3932 -3485.361 -732.4977 -3485.361 L -741.2977 -3485.361 C -742.4023 -3485.361 -743.2977 -3486.2564 -743.2977 -3487.361 L -743.2977 -3499.361 C -743.2977 -3500.4656 -742.4023 -3501.361 -741.2977 -3501.361 L -734.1201 -3501.361 C -734.0139 -3501.3677 -733.9034 -3501.3323 -733.8149 -3501.244 L -730.6149 -3498.044 C -730.5264 -3497.9554 -730.491 -3497.845 -730.4977 -3497.7386 Z M -734.4977 -3500.561 L -741.2977 -3500.561 C -741.9605 -3500.561 -742.4977 -3500.0237 -742.4977 -3499.361 L -742.4977 -3487.361 C -742.4977 -3486.6983 -741.9605 -3486.161 -741.2977 -3486.161 L -732.4977 -3486.161 C -731.835 -3486.161 -731.2977 -3486.6983 -731.2977 -3487.361 L -731.2977 -3497.361 L -734.0977 -3497.361 C -734.31865 -3497.361 -734.4977 -3497.54 -734.4977 -3497.761 Z M -733.6977 -3499.9953 L -733.6977 -3498.161 L -731.8634 -3498.161 Z" fill="white"/>
      </g>
      <g id="Graphic_10966">
        <title>G</title>
        <path d="M -734.4898 -3491.266 L -734.4898 -3492.356 L -737.0898 -3492.356 L -737.0898 -3491.436 L -735.5698 -3491.436 L -735.5698 -3491.036 C -735.5698 -3490.576 -735.6598 -3490.216 -735.9198 -3489.916 C -736.1998 -3489.586 -736.6198 -3489.406 -737.0898 -3489.406 C -737.5198 -3489.406 -737.8798 -3489.566 -738.1498 -3489.846 C -738.4998 -3490.226 -738.5698 -3490.656 -738.5698 -3492.066 C -738.5698 -3493.476 -738.4998 -3493.906 -738.1498 -3494.286 C -737.8798 -3494.566 -737.5198 -3494.726 -737.0898 -3494.726 C -736.2898 -3494.726 -735.7698 -3494.266 -735.5898 -3493.486 L -734.5098 -3493.486 C -734.6998 -3494.696 -735.5898 -3495.686 -737.0898 -3495.686 C -737.8698 -3495.686 -738.4698 -3495.426 -738.9298 -3494.966 C -739.6198 -3494.266 -739.6498 -3493.556 -739.6498 -3492.066 C -739.6498 -3490.576 -739.6198 -3489.866 -738.9298 -3489.166 C -738.4698 -3488.706 -737.8698 -3488.446 -737.0898 -3488.446 C -736.3398 -3488.446 -735.6598 -3488.696 -735.1298 -3489.256 C -734.6598 -3489.766 -734.4898 -3490.336 -734.4898 -3491.266 Z" fill="#c0e0ff"/>
      </g>
    </g>
  </g>
</svg>
